X: 22
T: No_2_Song_When_Treating_Smallpox.krn
N: Derived from No_2_Song_When_Treating_Smallpox.krn
%%abc-version 2.0
%%abcx-abcm2ps-target-version 5.9.1 (29 Sep 2008)
%%abc-creator hum2abc beta
%%abcx-conversion-date 2019/03/15 08:26:49
%%humdrum-veritas 1355676470
%%humdrum-veritas-data 1049165675
%%linebreak <none>
%%barnumbers 0
L: 1/16
M: 2/4
K: Bb clef=bass
[K:clef=bass][M:2/4]z4z3 A, | 
B,3A,B,4 | 
z4z3 G, ||  
[M:3/4]F,3G, F,2z4G,A, ||  
[M:2/4]B,2F,G, B,2G,3/G,/ | 
F,3G, F,2 z F, | 
F,4G,3/G,/G,3/G,/ | 
F,4D,2 z G, | 
F,G,F,2 D,2G,3/F,/ | 
D,2F,2 D,2 z G, | 
F,2F,G, F,D,F,3/F,/ | 
D,3F, D,2 z G, | 
F,G,F,2 D,2G,3/F,/ | 
D,2F,2 D,2 z G, | 
F,2F,G, F,D,F,3/F,/ | 
D,3F, D,2 z G, | 
F,G,F,2 F,D,G,3/F,/ | 
D,2F,2 D,2 z A, ||  
[M:3/8]G,4B,G, ||  
[M:2/4]F,2D,2- D,2G,G, | 
F,2D,D, B,,2 z2 |]  



